symbolic/22x22/mimetypes/inode-fifo.svg

<svg xmlns="http://www.w3.org/2000/svg" width="22" height="22" version="1.1">
 <path style="opacity:0.2" d="m 4,1.5 c -0.554,0 -1,0.446 -1,1 v 18 c 0,0.554 0.446,1 1,1 h 14 c 0.554,0 1,-0.446 1,-1 v -13 l -6,-6 z"/>
 <path style="fill:#794ec6" d="M 4,1 C 3.446,1 3,1.446 3,2 v 18 c 0,0.554 0.446,1 1,1 h 14 c 0.554,0 1,-0.446 1,-1 V 7 L 14,6 13,1 Z"/>
 <path style="opacity:0.2" d="m 19,7.5 -6,-6 v 5 c 0,0.554 0.446,1 1,1 z"/>
 <path style="fill:#926fd2" d="M 19,7 13,1 v 5 c 0,0.554 0.446,1 1,1 z"/>
 <path style="opacity:0.2;fill:#ffffff" d="M 4,1 C 3.446,1 3,1.446 3,2 v 0.5 c 0,-0.554 0.446,-1 1,-1 h 9 V 1 Z"/>
 <path style="opacity:0.2" d="M 10.5,8.5 C 9.671574,8.5 9,9.171573 9,10 9,10.828426 9.671574,11.5 10.5,11.5 11.328426,11.5 12,10.828426 12,10 12,9.171573 11.328426,8.5 10.5,8.5 Z M 7,9.5 V 10 H 5 v 0.5 H 7 V 11 L 7.5,10.625 8,10.25 7.5,9.875 Z m 6,0.5 v 0.5 h 2.5 v 1 H 15 L 15.375,12 15.75,12.5 16.125,12 16.5,11.5 H 16 V 10 Z m 2.5,3.5 c -0.828426,0 -1.5,0.671574 -1.5,1.5 0,0.828426 0.671574,1.5 1.5,1.5 0.828426,0 1.5,-0.671574 1.5,-1.5 0,-0.828426 -0.671574,-1.5 -1.5,-1.5 z m -5,4 C 9.671574,17.5 9,18.171574 9,19 c 0,0.828426 0.671574,1.5 1.5,1.5 0.828426,0 1.5,-0.671574 1.5,-1.5 0,-0.828426 -0.671574,-1.5 -1.5,-1.5 z m 5,0 v 1 H 14 V 18 L 13.5,18.375 13,18.75 13.5,19.125 14,19.5 V 19 h 1.5 0.5 v -0.5 -1 z M 6,18 5.5,18.375 5,18.75 5.5,19.125 6,19.5 V 19 H 8 V 18.5 H 6 Z"/>
 <path style="fill:#ffffff" d="M 10.5 8 C 9.671574 8 9 8.671573 9 9.5 C 9 10.328426 9.671574 11 10.5 11 C 11.328426 11 12 10.328426 12 9.5 C 12 8.671573 11.328426 8 10.5 8 z M 7 9 L 7 9.5 L 5 9.5 L 5 10 L 7 10 L 7 10.5 L 7.5 10.125 L 8 9.75 L 7.5 9.375 L 7 9 z M 13 9.5 L 13 10 L 15.5 10 L 15.5 11 L 15 11 L 15.375 11.5 L 15.75 12 L 16.125 11.5 L 16.5 11 L 16 11 L 16 9.5 L 13 9.5 z M 15.5 13 C 14.671574 13 14 13.671574 14 14.5 C 14 15.328426 14.671574 16 15.5 16 C 16.328426 16 17 15.328426 17 14.5 C 17 13.671574 16.328426 13 15.5 13 z M 10.5 17 C 9.671574 17 9 17.671574 9 18.5 C 9 19.328426 9.671574 20 10.5 20 C 11.328426 20 12 19.328426 12 18.5 C 12 17.671574 11.328426 17 10.5 17 z M 15.5 17 L 15.5 18 L 14 18 L 14 17.5 L 13.5 17.875 L 13 18.25 L 13.5 18.625 L 14 19 L 14 18.5 L 15.5 18.5 L 16 18.5 L 16 18 L 16 17 L 15.5 17 z M 6 17.5 L 5.5 17.875 L 5 18.25 L 5.5 18.625 L 6 19 L 6 18.5 L 8 18.5 L 8 18 L 6 18 L 6 17.5 z"/>
</svg>

<svg xmlns="http://www.w3.org/2000/svg" width="22" height="22"><path style="opacity:.2" d="M4 1.5c-.554 0-1 .446-1 1v18c0 .554.446 1 1 1h14c.554 0 1-.446 1-1v-13l-6-6z"/><path style="fill:#794ec6" d="M4 1c-.554 0-1 .446-1 1v18c0 .554.446 1 1 1h14c.554 0 1-.446 1-1V7l-5-1-1-5z"/><path style="opacity:.2" d="m19 7.5-6-6v5c0 .554.446 1 1 1z"/><path style="fill:#926fd2" d="m19 7-6-6v5c0 .554.446 1 1 1z"/><path style="opacity:.2;fill:#fff" d="M4 1c-.554 0-1 .446-1 1v.5c0-.554.446-1 1-1h9V1z"/><path style="opacity:.2" d="M10.5 8.5a1.5 1.5 0 1 0 0 3 1.5 1.5 0 0 0 0-3zM7 9.5v.5H5v.5h2v.5l.5-.375.5-.375-.5-.375zm6 .5v.5h2.5v1H15l.375.5.375.5.375-.5.375-.5H16V10zm2.5 3.5a1.5 1.5 0 1 0 0 3 1.5 1.5 0 0 0 0-3zm-5 4a1.5 1.5 0 1 0 0 3 1.5 1.5 0 0 0 0-3zm5 0v1H14V18l-.5.375-.5.375.5.375.5.375V19h2v-1.5zM6 18l-.5.375-.5.375.5.375.5.375V19h2v-.5H6z"/><path style="fill:#fff" d="M10.5 8a1.5 1.5 0 1 0 0 3 1.5 1.5 0 0 0 0-3zM7 9v.5H5v.5h2v.5l.5-.375.5-.375-.5-.375L7 9zm6 .5v.5h2.5v1H15l.375.5.375.5.375-.5.375-.5H16V9.5h-3zm2.5 3.5a1.5 1.5 0 1 0 0 3 1.5 1.5 0 0 0 0-3zm-5 4a1.5 1.5 0 1 0 0 3 1.5 1.5 0 0 0 0-3zm5 0v1H14v-.5l-.5.375-.5.375.5.375.5.375v-.5h2V17h-.5zm-9.5.5-.5.375-.5.375.5.375L6 19v-.5h2V18H6v-.5z"/></svg>
